X:1
T:Slieve Gallen Braes
M:4/4
L:1/8
K:D
 A| A3/2 A/2 AB=c-A EF| G3/2 F/2 DD D3 A| d2 de f/2- d3/2 e3/2 c/2|\
 A2 Bc d3| A/2B/2| =c/2 A3/2 BG ED-D F/2G/2| AA(2F3.99999962500005/5.99999925000009F3.99999962500005/5.99999925000009E3.99999962500005/5.99999925000009 D3.99999962500005/5.99999925000009 d3d/2-e/2|\
 f3/2 d/2 ec d/2 A3/2 B/2 G3/2|E-F G/2 E3/2 D3/2||

